; generated by PrusaSlicer 2.3.0+linux-x64 on 2023-04-21 at 09:53:36 UTC

; 

; external perimeters extrusion width = 0.60mm
; perimeters extrusion width = 0.50mm
; infill extrusion width = 0.50mm
; solid infill extrusion width = 0.50mm
; top infill extrusion width = 0.45mm
; first layer extrusion width = 0.42mm

M73 P0 R0
M73 Q0 S1
M201 X1000 Y1000 Z200 E5000 ; sets maximum accelerations, mm/sec^2
M203 X200 Y200 Z12 E120 ; sets maximum feedrates, mm/sec
M204 P1250 R1250 T1250 ; sets acceleration (P, T) and retract acceleration (R), mm/sec^2
M205 X8.00 Y8.00 Z0.40 E4.50 ; sets the jerk limits, mm/sec
M205 S0 T0 ; sets the minimum extruding and travel feed rate, mm/sec
M107
;TYPE:Custom
M862.3 P "MK3S" ; printer model check
M862.1 P0.4 ; nozzle diameter check
M115 U3.9.2 ; tell printer latest fw version
G90 ; use absolute coordinates
M83 ; extruder relative mode
M104 S215 ; set extruder temp
M140 S60 ; set bed temp
M190 S60 ; wait for bed temp
M109 S215 ; wait for extruder temp
G28 W ; home all without mesh bed level
G80 ; mesh bed leveling
G1 Y-3.0 F1000.0 ; go outside print area
G92 E0.0
G1 X60.0 E9.0 F1000.0 ; intro line
M73 P12 R0
M73 Q12 S0
G1 X100.0 E12.5 F1000.0 ; intro line
G92 E0.0
M221 S95

; Don't change E values below. Excessive value can damage the printer.

M907 E538 ; set extruder motor current
G21 ; set units to millimeters
G90 ; use absolute coordinates
M83 ; use relative distances for extrusion
M900 K0.05 ; Filament gcode LA 1.5
M900 K30 ; Filament gcode LA 1.0
;LAYER_CHANGE
;Z:0.2
;HEIGHT:0.2
;BEFORE_LAYER_CHANGE
G92 E0.0
;0.2


M73 P21 R0
M73 Q20 S0
G1 E-0.80000 F2100.000
G1 Z0.400 F10800.000
;AFTER_LAYER_CHANGE
;0.2
G1 X73.774 Y93.244
M73 P24 R0
M73 Q24 S0
G1 Z0.200
G1 E0.80000 F2100.000
M204 S1000
;TYPE:Skirt
;WIDTH:0.42
G1 F1200.000
G1 X74.353 Y92.976 E0.02000
G1 X75.257 Y92.787 E0.02894
G1 X114.715 Y90.817 E1.23874
M73 P31 R0
M73 Q31 S0
G1 X170.276 Y92.506 E1.74285
M73 P40 R0
M73 Q40 S0
G1 X171.332 Y92.603 E0.03327
M73 P41 R0
G1 X172.249 Y92.857 E0.02984
G1 X173.624 Y93.511 E0.04774
M73 Q41 S0
G1 X174.434 Y94.044 E0.03038
G1 X175.402 Y94.877 E0.04005
G1 X176.351 Y96.046 E0.04721
M73 P42 R0
G1 X176.786 Y96.837 E0.02829
G1 X177.008 Y97.517 E0.02245
G1 X177.295 Y100.454 E0.09253
M73 Q42 S0
G1 X177.403 Y102.950 E0.07832
M73 P43 R0
G1 X177.388 Y106.059 E0.09750
M73 Q43 S0
G1 X177.275 Y110.356 E0.13477
M73 P44 R0
M73 Q44 S0
G1 X177.173 Y111.475 E0.03522
G1 X176.921 Y112.441 E0.03132
G1 X176.212 Y113.890 E0.05056
M73 P45 R0
G1 X175.032 Y115.251 E0.05650
G1 X173.341 Y116.375 E0.06365
M73 Q45 S0
G1 X171.079 Y117.077 E0.07424
M73 P46 R0
G1 X169.508 Y117.250 E0.04957
G1 X120.808 Y119.181 E1.52816
M73 P54 R0
M73 Q53 S0
G1 X108.604 Y119.180 E0.38264
M73 P57 R0
M73 Q55 S0
G1 X77.280 Y116.934 E0.98466
M73 P62 R0
M73 Q61 S0
G1 X76.739 Y116.830 E0.01728
G1 X76.236 Y116.605 E0.01728
G1 X75.799 Y116.269 E0.01728
G1 X75.451 Y115.842 E0.01728
G1 X75.226 Y115.390 E0.01585
G1 X75.101 Y114.896 E0.01597
G1 X72.603 Y95.613 E0.60965
M73 P66 R0
M73 Q64 S0
G1 X72.641 Y94.926 E0.02156
G1 X72.847 Y94.310 E0.02036
M73 Q65 S0
G1 X73.259 Y93.687 E0.02343
G1 X73.729 Y93.283 E0.01942
; printing object aztues.svg_5mm.stl id:0 copy 0
;WIPE_START
G1 F8640.000
G1 X74.353 Y92.976 E-0.16068
G1 X75.257 Y92.787 E-0.21313
G1 X76.927 Y92.704 E-0.38619
;WIPE_END
M73 P67 R0
G1 E-0.04000 F2100.000
G1 Z0.600 F10800.000
G1 X166.160 Y95.451
M73 P69 R0
M73 Q69 S0
G1 Z0.200
G1 E0.80000 F2100.000
;TYPE:External perimeter
M73 P70 R0
G1 F1200.000
G1 X166.735 Y95.250 E0.01909
G1 X166.217 Y95.431 E0.01721
G1 X166.542 Y95.569 F10800.000
;WIPE_START
G1 F8640.000
G1 X166.735 Y95.250 E-0.12674
G1 X166.217 Y95.431 E-0.12674
;WIPE_END
M73 Q70 S0
G1 E-0.54651 F2100.000
G1 Z0.600 F10800.000
G1 X81.362 Y108.575
M73 P73 R0
M73 Q73 S0
G1 Z0.200
G1 E0.80000 F2100.000
G1 F1200.000
G1 X81.305 Y109.064 E0.01544
M73 Q74 S0
G1 X81.247 Y108.591 E0.01496
G1 X81.302 Y108.583 E0.00175
G1 X81.040 Y108.337 F10800.000
;WIPE_START
G1 F8640.000
G1 X81.305 Y109.064 E-0.11110
M73 P74 R0
G1 X81.247 Y108.591 E-0.11021
G1 X81.302 Y108.583 E-0.01286
;WIPE_END
G1 E-0.56583 F2100.000
G1 Z0.600 F10800.000
G1 X141.426 Y112.304
M73 P76 R0
M73 Q77 S0
G1 Z0.200
G1 E0.80000 F2100.000
G1 F1200.000
G1 X141.525 Y112.309 E0.00310
G1 X141.426 Y112.853 E0.01734
G1 X141.426 Y112.364 E0.01534
G1 X141.373 Y112.387 F10800.000
;WIPE_START
G1 F8640.000
G1 X141.525 Y112.309 E-0.02612
G1 X141.426 Y112.853 E-0.12773
M73 P77 R0
G1 X141.426 Y112.364 E-0.11295
;WIPE_END
M73 Q78 S0
G1 E-0.53321 F2100.000
G1 Z0.600 F10800.000
G1 X147.069 Y104.145
M73 P78 R0
M73 Q79 S0
G1 Z0.200
G1 E0.80000 F2100.000
G1 F1200.000
G1 X147.101 Y103.940 E0.00650
G1 X147.116 Y104.135 E0.00613
G1 X147.258 Y104.060 F10800.000
; stop printing object aztues.svg_5mm.stl id:0 copy 0
;WIPE_START
G1 F8640.000;_WIPE
G1 X147.101 Y103.940 E-0.04513
G1 F8640.000;_WIPE
G1 X147.116 Y104.135 E-0.04513
;WIPE_END
G1 E-0.70975 F2100.000
M73 P79 R0
G1 Z0.600 F10800.000
;TYPE:Custom
; Filament-specific end gcode
G4 ; wait
M221 S100 ; reset flow
M900 K0 ; reset LA

M104 S0 ; turn off temperature
M140 S0 ; turn off heatbed
M107 ; turn off fan
M73 Q80 S0
G1 Z30.2 ; Move print head up
M73 P87 R0
M73 Q88 S0
G1 X0 Y200 F3000 ; home X axis
M84 ; disable motors
M73 P100 R0
M73 Q100 S0
; filament used [mm] = 7.88
; filament used [cm3] = 0.02
; filament used [g] = 0.02
; filament cost = 0.00
; total filament used [g] = 0.02
; total filament cost = 0.00
; estimated printing time (normal mode) = 29s
; estimated printing time (silent mode) = 30s

; avoid_crossing_perimeters = 0
; avoid_crossing_perimeters_max_detour = 0
; bed_custom_model = 
; bed_custom_texture = 
; bed_shape = 0x0,250x0,250x210,0x210
; bed_temperature = 60
; before_layer_gcode = ;BEFORE_LAYER_CHANGE\nG92 E0.0\n;[layer_z]\n\n
; between_objects_gcode = 
; bottom_fill_pattern = monotonic
; bottom_solid_layers = 3
; bottom_solid_min_thickness = 0.5
; bridge_acceleration = 1000
; bridge_angle = 0
; bridge_fan_speed = 100
; bridge_flow_ratio = 0.95
; bridge_speed = 30
; brim_width = 0
; clip_multipart_objects = 1
; color_change_gcode = M600
; compatible_printers_condition_cummulative = "printer_notes=~/.*PRINTER_VENDOR_PRUSA3D.*/ and printer_notes=~/.*PRINTER_MODEL_MK3.*/ and nozzle_diameter[0]==0.4";"nozzle_diameter[0]!=0.8 and ! (printer_notes=~/.*PRINTER_VENDOR_PRUSA3D.*/ and printer_notes=~/.*PRINTER_MODEL_MK(2.5|3).*/ and single_extruder_multi_material)"
; complete_objects = 0
; cooling = 1
; cooling_tube_length = 5
; cooling_tube_retraction = 91.5
; default_acceleration = 1000
; default_filament_profile = "Prusament PLA"
; default_print_profile = 0.15mm QUALITY @MK3
; deretract_speed = 0
; disable_fan_first_layers = 1
; dont_support_bridges = 1
; draft_shield = 0
; duplicate_distance = 6
; elefant_foot_compensation = 0.2
; end_filament_gcode = "; Filament-specific end gcode"
; end_gcode = G4 ; wait\nM221 S100 ; reset flow\nM900 K0 ; reset LA\n{if print_settings_id=~/.*(DETAIL @MK3|QUALITY @MK3|@0.25 nozzle MK3).*/}M907 E538 ; reset extruder motor current{endif}\nM104 S0 ; turn off temperature\nM140 S0 ; turn off heatbed\nM107 ; turn off fan\n{if max_layer_z < max_print_height}G1 Z{z_offset+min(max_layer_z+30, max_print_height)}{endif} ; Move print head up\nG1 X0 Y200 F3000 ; home X axis\nM84 ; disable motors
; ensure_vertical_shell_thickness = 1
; external_perimeter_extrusion_width = 0.6
; external_perimeter_speed = 35
; external_perimeters_first = 0
; extra_loading_move = -2
; extra_perimeters = 0
; extruder_clearance_height = 20
; extruder_clearance_radius = 45
; extruder_colour = ""
; extruder_offset = 0x0
; extrusion_axis = E
; extrusion_multiplier = 1
; extrusion_width = 0.5
; fan_always_on = 1
; fan_below_layer_time = 100
; filament_colour = #FF8000
; filament_cooling_final_speed = 3.4
; filament_cooling_initial_speed = 2.2
; filament_cooling_moves = 4
; filament_cost = 24.99
; filament_density = 1.24
; filament_diameter = 1.75
; filament_load_time = 0
; filament_loading_speed = 28
; filament_loading_speed_start = 3
; filament_max_volumetric_speed = 15
; filament_minimal_purge_on_wipe_tower = 15
; filament_notes = "Affordable filament for everyday printing in premium quality manufactured in-house by Josef Prusa"
; filament_ramming_parameters = "120 100 6.6 6.8 7.2 7.6 7.9 8.2 8.7 9.4 9.9 10.0| 0.05 6.6 0.45 6.8 0.95 7.8 1.45 8.3 1.95 9.7 2.45 10 2.95 7.6 3.45 7.6 3.95 7.6 4.45 7.6 4.95 7.6"
; filament_settings_id = "Prusament PLA"
; filament_soluble = 0
; filament_spool_weight = 201
; filament_toolchange_delay = 0
; filament_type = PLA
; filament_unload_time = 0
; filament_unloading_speed = 90
; filament_unloading_speed_start = 100
; filament_vendor = Prusa Polymers
; fill_angle = 45
; fill_density = 20%
; fill_pattern = grid
; first_layer_acceleration = 1000
; first_layer_bed_temperature = 60
; first_layer_extrusion_width = 0.42
; first_layer_height = 0.2
; first_layer_speed = 20
; first_layer_temperature = 215
; full_fan_speed_layer = 4
; gap_fill_speed = 40
; gcode_comments = 0
; gcode_flavor = marlin
; gcode_label_objects = 1
; high_current_on_filament_swap = 0
; host_type = octoprint
; infill_acceleration = 1000
; infill_anchor = 2.5
; infill_anchor_max = 12
; infill_every_layers = 1
; infill_extruder = 1
; infill_extrusion_width = 0.5
; infill_first = 0
; infill_only_where_needed = 0
; infill_overlap = 25%
; infill_speed = 85
; interface_shells = 0
; ironing = 0
; ironing_flowrate = 15%
; ironing_spacing = 0.1
; ironing_speed = 15
; ironing_type = top
; layer_gcode = ;AFTER_LAYER_CHANGE\n;[layer_z]
; layer_height = 0.3
; machine_limits_usage = emit_to_gcode
; machine_max_acceleration_e = 5000,5000
; machine_max_acceleration_extruding = 1250,1250
; machine_max_acceleration_retracting = 1250,1250
; machine_max_acceleration_x = 1000,960
; machine_max_acceleration_y = 1000,960
; machine_max_acceleration_z = 200,200
; machine_max_feedrate_e = 120,120
; machine_max_feedrate_x = 200,100
; machine_max_feedrate_y = 200,100
; machine_max_feedrate_z = 12,12
; machine_max_jerk_e = 4.5,4.5
; machine_max_jerk_x = 8,8
; machine_max_jerk_y = 8,8
; machine_max_jerk_z = 0.4,0.4
; machine_min_extruding_rate = 0,0
; machine_min_travel_rate = 0,0
; max_fan_speed = 100
; max_layer_height = 0.25
; max_print_height = 210
; max_print_speed = 200
; max_volumetric_speed = 0
; min_fan_speed = 100
; min_layer_height = 0.07
; min_print_speed = 15
; min_skirt_length = 4
; notes = 
; nozzle_diameter = 0.4
; only_retract_when_crossing_perimeters = 0
; ooze_prevention = 0
; output_filename_format = {input_filename_base}_{layer_height}mm_{filament_type[0]}_{printer_model}_{print_time}.gcode
; overhangs = 0
; parking_pos_retraction = 92
; pause_print_gcode = M601
; perimeter_acceleration = 800
; perimeter_extruder = 1
; perimeter_extrusion_width = 0.5
; perimeter_speed = 50
; perimeters = 2
; physical_printer_settings_id = 
; post_process = 
; print_settings_id = 0.30mm DRAFT @MK3
; printer_model = MK3S
; printer_notes = Don't remove the following keywords! These keywords are used in the "compatible printer" condition of the print and filament profiles to link the particular print and filament profiles to this printer profile.\nPRINTER_VENDOR_PRUSA3D\nPRINTER_MODEL_MK3\n
; printer_settings_id = Original Prusa i3 MK3S & MK3S+
; printer_technology = FFF
; printer_variant = 0.4
; printer_vendor = 
; raft_layers = 0
; remaining_times = 1
; resolution = 0
; retract_before_travel = 1
; retract_before_wipe = 0%
; retract_layer_change = 1
; retract_length = 0.8
; retract_length_toolchange = 4
; retract_lift = 0.4
; retract_lift_above = 0
; retract_lift_below = 209
; retract_restart_extra = 0
; retract_restart_extra_toolchange = 0
; retract_speed = 35
; seam_position = nearest
; silent_mode = 1
; single_extruder_multi_material = 0
; single_extruder_multi_material_priming = 0
; skirt_distance = 2
; skirt_height = 3
; skirts = 1
; slice_closing_radius = 0.049
; slowdown_below_layer_time = 15
; small_perimeter_speed = 30
; solid_infill_below_area = 0
; solid_infill_every_layers = 0
; solid_infill_extruder = 1
; solid_infill_extrusion_width = 0.5
; solid_infill_speed = 80
; spiral_vase = 0
; standby_temperature_delta = -5
; start_filament_gcode = "M900 K{if printer_notes=~/.*PRINTER_MODEL_MINI.*/ and nozzle_diameter[0]==0.6}0.12{elsif printer_notes=~/.*PRINTER_MODEL_MINI.*/ and nozzle_diameter[0]==0.8}0.06{elsif printer_notes=~/.*PRINTER_MODEL_MINI.*/}0.2{elsif nozzle_diameter[0]==0.8}0.01{elsif nozzle_diameter[0]==0.6}0.04{else}0.05{endif} ; Filament gcode LA 1.5\n{if printer_notes=~/.*PRINTER_MODEL_MINI.*/};{elsif printer_notes=~/.*PRINTER_HAS_BOWDEN.*/}M900 K200{elsif nozzle_diameter[0]==0.6}M900 K18{elsif nozzle_diameter[0]==0.8};{else}M900 K30{endif} ; Filament gcode LA 1.0"
; start_gcode = M862.3 P "[printer_model]" ; printer model check\nM862.1 P[nozzle_diameter] ; nozzle diameter check\nM115 U3.9.2 ; tell printer latest fw version\nG90 ; use absolute coordinates\nM83 ; extruder relative mode\nM104 S[first_layer_temperature] ; set extruder temp\nM140 S[first_layer_bed_temperature] ; set bed temp\nM190 S[first_layer_bed_temperature] ; wait for bed temp\nM109 S[first_layer_temperature] ; wait for extruder temp\nG28 W ; home all without mesh bed level\nG80 ; mesh bed leveling\nG1 Y-3.0 F1000.0 ; go outside print area\nG92 E0.0\nG1 X60.0 E9.0 F1000.0 ; intro line\nG1 X100.0 E12.5 F1000.0 ; intro line\nG92 E0.0\nM221 S{if layer_height<0.075}100{else}95{endif}\n\n; Don't change E values below. Excessive value can damage the printer.\n{if print_settings_id=~/.*(DETAIL @MK3|QUALITY @MK3).*/}M907 E430 ; set extruder motor current{endif}\n{if print_settings_id=~/.*(SPEED @MK3|DRAFT @MK3).*/}M907 E538 ; set extruder motor current{endif}
; support_material = 0
; support_material_angle = 0
; support_material_auto = 1
; support_material_buildplate_only = 0
; support_material_contact_distance = 0.1
; support_material_enforce_layers = 0
; support_material_extruder = 0
; support_material_extrusion_width = 0.38
; support_material_interface_contact_loops = 0
; support_material_interface_extruder = 0
; support_material_interface_layers = 2
; support_material_interface_spacing = 0.2
; support_material_interface_speed = 100%
; support_material_pattern = rectilinear
; support_material_spacing = 2
; support_material_speed = 45
; support_material_synchronize_layers = 0
; support_material_threshold = 55
; support_material_with_sheath = 0
; support_material_xy_spacing = 50%
; temperature = 215
; template_custom_gcode = 
; thin_walls = 0
; threads = 8
; thumbnails = 
; toolchange_gcode = 
; top_fill_pattern = monotonic
; top_infill_extrusion_width = 0.45
; top_solid_infill_speed = 40
; top_solid_layers = 4
; top_solid_min_thickness = 0.7
; travel_speed = 180
; use_firmware_retraction = 0
; use_relative_e_distances = 1
; use_volumetric_e = 0
; variable_layer_height = 1
; wipe = 1
; wipe_into_infill = 0
; wipe_into_objects = 0
; wipe_tower = 1
; wipe_tower_bridging = 10
; wipe_tower_no_sparse_layers = 0
; wipe_tower_rotation_angle = 0
; wipe_tower_width = 60
; wipe_tower_x = 170
; wipe_tower_y = 125
; wiping_volumes_extruders = 70,70
; wiping_volumes_matrix = 0
; xy_size_compensation = 0
; z_offset = 0
